icons/numix/32x32/mimetypes/application-vnd.oasis.opendocument.drawing-template.svg

<?xml version="1.0" encoding="UTF-8" standalone="no"?>
<svg
   xmlns:dc="http://purl.org/dc/elements/1.1/"
   xmlns:cc="http://creativecommons.org/ns#"
   xmlns:rdf="http://www.w3.org/1999/02/22-rdf-syntax-ns#"
   xmlns:svg="http://www.w3.org/2000/svg"
   xmlns="http://www.w3.org/2000/svg"
   xmlns:sodipodi="http://sodipodi.sourceforge.net/DTD/sodipodi-0.dtd"
   xmlns:inkscape="http://www.inkscape.org/namespaces/inkscape"
   width="32"
   height="32"
   viewBox="0 0 32 32"
   id="svg3003"
   version="1.1"
   inkscape:version="0.48.5 r10040"
   sodipodi:docname="application-vnd.oasis.opendocument.drawing-template.svg">
  <metadata
     id="metadata3023">
    <rdf:RDF>
      <cc:Work
         rdf:about="">
        <dc:format>image/svg+xml</dc:format>
        <dc:type
           rdf:resource="http://purl.org/dc/dcmitype/StillImage" />
      </cc:Work>
    </rdf:RDF>
  </metadata>
  <defs
     id="defs3021" />
  <sodipodi:namedview
     pagecolor="#ffffff"
     bordercolor="#666666"
     borderopacity="1"
     objecttolerance="10"
     gridtolerance="10"
     guidetolerance="10"
     inkscape:pageopacity="0"
     inkscape:pageshadow="2"
     inkscape:window-width="1280"
     inkscape:window-height="970"
     id="namedview3019"
     showgrid="true"
     inkscape:zoom="5.6568543"
     inkscape:cx="23.284024"
     inkscape:cy="-0.40618977"
     inkscape:window-x="0"
     inkscape:window-y="0"
     inkscape:window-maximized="1"
     inkscape:current-layer="svg3003">
    <inkscape:grid
       type="xygrid"
       id="grid3034" />
  </sodipodi:namedview>
  <path
     inkscape:connector-curvature="0"
     style="fill:#edaf02;fill-opacity:1"
     d="M 5.34375,-2e-7 C 4.6562764,1.48e-5 4,0.6890068 4,1.4062498 L 4,30.59375 C 4,31.270239 4.6953364,32 5.34375,32 l 21.3125,0 C 27.304664,32 28,31.270239 28,30.59375 L 28,8.9999992 28,1.3749998 C 28,0.7020488 27.297951,-2e-7 26.625,-2e-7 l -7.625,0 -13.65625,0 z"
     id="path4-1" />
  <path
     style="fill:#000000;fill-opacity:0.19599998"
     d="m 4,24 0,6.667969 C 4,31.316407 4.6875,32 5.332031,32 l 21.335938,0 C 27.3125,32 28,31.316407 28,30.667969 L 28,24 z"
     id="path3009"
     inkscape:connector-curvature="0" />
  <path
     style="fill:#ffffff"
     d="m 9.9999999,21 0,-12.0000002 L 22,8.9999998 22,21 l -7,0 0,-6 3,0 0,2 -1,0 0,2 3,0 0,-8 -8,0 0,10 z"
     id="path3027"
     inkscape:connector-curvature="0"
     sodipodi:nodetypes="ccccccccccccccc" />
  <g
     style="fill:#ffffff"
     id="g3011"
     transform="matrix(1.049502,0,0,1.049502,-0.79007905,-0.37568533)">
    <path
       d="m 10.492188,27.332031 c 0,0.25 0.01172,0.484375 0.02734,0.703125 0.02734,0.214844 0.07031,0.402344 0.132813,0.5625 0.06641,0.160156 0.160156,0.285156 0.277344,0.378906 0.117187,0.09375 0.273437,0.140626 0.472656,0.140626 0.191406,0 0.347656,-0.04688 0.464844,-0.140626 0.121093,-0.09375 0.214843,-0.21875 0.277343,-0.378906 0.06641,-0.167968 0.113281,-0.355468 0.128907,-0.570312 0.02734,-0.214844 0.03906,-0.445313 0.03906,-0.695313 0,-0.246093 -0.01172,-0.476562 -0.03906,-0.691406 -0.01563,-0.222656 -0.0625,-0.410156 -0.128907,-0.570313 -0.0625,-0.160156 -0.152343,-0.285156 -0.269531,-0.378906 -0.117188,-0.09375 -0.273438,-0.140625 -0.472656,-0.140625 -0.199219,0 -0.355469,0.04687 -0.472656,0.140625 -0.117188,0.09375 -0.210938,0.222656 -0.277344,0.386719 -0.0625,0.160156 -0.105469,0.347656 -0.132813,0.5625 -0.01563,0.214844 -0.02734,0.445313 -0.02734,0.691406 m -1.160157,0 c 0,-0.878906 0.183594,-1.542969 0.546875,-1.988281 0.367188,-0.453125 0.875,-0.675781 1.523438,-0.675781 0.675781,0 1.1875,0.222656 1.539062,0.675781 0.355469,0.445312 0.53125,1.109375 0.53125,1.988281 0,0.882813 -0.179687,1.546875 -0.539062,2 C 12.574219,29.777344 12.066406,30 11.410156,30 c -0.671875,0 -1.1875,-0.222656 -1.546875,-0.667969 -0.355469,-0.453125 -0.53125,-1.117187 -0.53125,-2"
       id="path3013"
       inkscape:connector-curvature="0" />
    <path
       d="m 18.128906,24.78125 0,0.84375 -1.511718,0 0,4.265625 -1.152344,0 0,-4.265625 -1.511719,0 0,-0.84375 4.175781,0"
       id="path3015"
       inkscape:connector-curvature="0" />
    <path
       d="m 21.257812,25.550781 c -0.273437,0 -0.503906,0.04297 -0.6875,0.132813 -0.1875,0.08594 -0.339843,0.210937 -0.464843,0.371094 -0.117188,0.152343 -0.203125,0.339843 -0.257813,0.558593 -0.05078,0.214844 -0.07422,0.457031 -0.07422,0.71875 0,0.613281 0.105468,1.0625 0.324218,1.355469 0.214844,0.285156 0.535156,0.429688 0.953125,0.429688 0.07031,0 0.144531,-0.0039 0.222657,-0.0078 0.08203,-0.0078 0.15625,-0.01563 0.222656,-0.02734 l 0,-1.863281 1.144531,0 0,2.550781 C 22.503906,29.8125 22.289062,29.863281 22,29.917969 21.714844,29.972656 21.367188,30 20.960938,30 c -0.359376,0 -0.683594,-0.05469 -0.976563,-0.164062 -0.285156,-0.117188 -0.527344,-0.285157 -0.730469,-0.503907 -0.207031,-0.226562 -0.363281,-0.503906 -0.476562,-0.835937 -0.109375,-0.335938 -0.164063,-0.722656 -0.164063,-1.164063 0,-0.433593 0.0625,-0.816406 0.195313,-1.144531 0.128906,-0.335938 0.304687,-0.617188 0.527344,-0.84375 0.222656,-0.226562 0.484374,-0.394531 0.789062,-0.503906 0.300781,-0.117188 0.628906,-0.171875 0.972656,-0.171875 0.222656,0 0.421875,0.01563 0.59375,0.04687 0.179688,0.02734 0.335938,0.0625 0.464844,0.101562 0.128906,0.03906 0.234375,0.07813 0.316406,0.121094 0.08594,0.04687 0.152344,0.07813 0.195313,0.101562 l -0.296875,0.808594 C 22.234375,25.769521 22.066406,25.70312 21.867188,25.64062 21.671875,25.58203 21.464844,25.55078 21.257812,25.55078"
       id="path3017"
       inkscape:connector-curvature="0" />
  </g>
</svg>

<svg width="32" xmlns="http://www.w3.org/2000/svg" height="32" viewBox="0 0 32 32" xmlns:xlink="http://www.w3.org/1999/xlink">
<path style="fill:#edaf02" d="M 5.332031 0.667969 C 4.648438 0.667969 4 1.3125 4 2 L 4 30 C 4 30.648438 4.6875 31.332031 5.332031 31.332031 L 26.667969 31.332031 C 27.3125 31.332031 28 30.648438 28 30 L 28 2 C 28 1.3125 27.351562 0.667969 26.667969 0.667969 Z "/>
<path style="fill:#fff" d="M 10 21.332031 L 10 11.332031 L 22 11.332031 L 22 21.332031 L 15.332031 21.332031 L 15.332031 16 L 18.667969 16 L 18.667969 18 L 17.332031 18 L 17.332031 19.332031 L 20 19.332031 L 20 13.332031 L 12 13.332031 L 12 21.332031 Z "/>
<path style="fill:#000;fill-opacity:.196" d="M 4 23.332031 L 4 30 C 4 30.648438 4.6875 31.332031 5.332031 31.332031 L 26.667969 31.332031 C 27.3125 31.332031 28 30.648438 28 30 L 28 23.332031 Z "/>
<g style="fill:#fff">
<path d="M 10.492188 27.332031 C 10.492188 27.582031 10.503906 27.816406 10.519531 28.035156 C 10.546875 28.25 10.589844 28.4375 10.652344 28.597656 C 10.71875 28.757812 10.8125 28.882812 10.929688 28.976562 C 11.046875 29.070312 11.203125 29.117188 11.402344 29.117188 C 11.59375 29.117188 11.75 29.070312 11.867188 28.976562 C 11.988281 28.882812 12.082031 28.757812 12.144531 28.597656 C 12.210938 28.429688 12.257812 28.242188 12.273438 28.027344 C 12.300781 27.8125 12.3125 27.582031 12.3125 27.332031 C 12.3125 27.085938 12.300781 26.855469 12.273438 26.640625 C 12.257812 26.417969 12.210938 26.230469 12.144531 26.070312 C 12.082031 25.910156 11.992188 25.785156 11.875 25.691406 C 11.757812 25.597656 11.601562 25.550781 11.402344 25.550781 C 11.203125 25.550781 11.046875 25.597656 10.929688 25.691406 C 10.8125 25.785156 10.71875 25.914062 10.652344 26.078125 C 10.589844 26.238281 10.546875 26.425781 10.519531 26.640625 C 10.503906 26.855469 10.492188 27.085938 10.492188 27.332031 M 9.332031 27.332031 C 9.332031 26.453125 9.515625 25.789062 9.878906 25.34375 C 10.246094 24.890625 10.753906 24.667969 11.402344 24.667969 C 12.078125 24.667969 12.589844 24.890625 12.941406 25.34375 C 13.296875 25.789062 13.472656 26.453125 13.472656 27.332031 C 13.472656 28.214844 13.292969 28.878906 12.933594 29.332031 C 12.574219 29.777344 12.066406 30 11.410156 30 C 10.738281 30 10.222656 29.777344 9.863281 29.332031 C 9.507812 28.878906 9.332031 28.214844 9.332031 27.332031 "/>
<path d="M 18.128906 24.78125 L 18.128906 25.625 L 16.617188 25.625 L 16.617188 29.890625 L 15.464844 29.890625 L 15.464844 25.625 L 13.953125 25.625 L 13.953125 24.78125 L 18.128906 24.78125 "/>
<path d="M 21.257812 25.550781 C 20.984375 25.550781 20.753906 25.59375 20.570312 25.683594 C 20.382812 25.769531 20.230469 25.894531 20.105469 26.054688 C 19.988281 26.207031 19.902344 26.394531 19.847656 26.613281 C 19.796875 26.828125 19.773438 27.070312 19.773438 27.332031 C 19.773438 27.945312 19.878906 28.394531 20.097656 28.6875 C 20.3125 28.972656 20.632812 29.117188 21.050781 29.117188 C 21.121094 29.117188 21.195312 29.113281 21.273438 29.109375 C 21.355469 29.101562 21.429688 29.09375 21.496094 29.082031 L 21.496094 27.21875 L 22.640625 27.21875 L 22.640625 29.769531 C 22.503906 29.8125 22.289062 29.863281 22 29.917969 C 21.714844 29.972656 21.367188 30 20.960938 30 C 20.601562 30 20.277344 29.945312 19.984375 29.835938 C 19.699219 29.71875 19.457031 29.550781 19.253906 29.332031 C 19.046875 29.105469 18.890625 28.828125 18.777344 28.496094 C 18.667969 28.160156 18.613281 27.773438 18.613281 27.332031 C 18.613281 26.898438 18.675781 26.515625 18.808594 26.1875 C 18.9375 25.851562 19.113281 25.570312 19.335938 25.34375 C 19.558594 25.117188 19.820312 24.949219 20.125 24.839844 C 20.425781 24.722656 20.753906 24.667969 21.097656 24.667969 C 21.320312 24.667969 21.519531 24.683594 21.691406 24.714844 C 21.871094 24.742188 22.027344 24.777344 22.15625 24.816406 C 22.285156 24.855469 22.390625 24.894531 22.472656 24.9375 C 22.558594 24.984375 22.625 25.015625 22.667969 25.039062 L 22.371094 25.847656 C 22.234375 25.769531 22.066406 25.703125 21.867188 25.640625 C 21.671875 25.582031 21.464844 25.550781 21.257812 25.550781 "/>
</g>
</svg>
